X:217
T:Isabelle Blackley
M:6/8
L:1/8
R:jig
Z:Brooke Alberts
N:Brooke Alberts
K:D
|:c2e e^ga|d2f fed|c2e e^ga|dBB B3|c2e e^ga|d2f fed|cde fed|cAA A3:|
|:dff afd|cee gec|dff afd|cAA A3|dff afd|Bcd GAB|cde fed|cAA A3:|
|:dff Bff|dff B3|cee Aee|a^ga edc|dff Bdd|GAB Bcd|cde fed|cAA A3:|
|:eaa efg|fed cBA|BAB GBd|gfg ecA|eaa efg|fed cBA|Bcd fed|cAA A3:|
